X: 1
T: Back of the Change House
T: C\`ul an Taigh Osda
O:Bagpipe adaptation 1848
M:C
L:1/8
R:Reel
B:William Gunn - The Caledonian Repository of Music
B:Adapted for the Bagpipes (Glasgow, 1848, p. 2)
Z:AK/Fiddler’s Companion
K:D
B |\
AAAf edBd | AAAB dedB |\
AAAf edBg |[1 faef dedB :|[2 faef d2d ||
|: g |\
fedf edBg | fefg a>dag |\
[1 fedf edBg | faef d2d :|\
[2 fdaf edBg | faef d2d |]
